icons/fold-up-24.svg

<svg width="24" height="24" viewBox="0 0 24 24" xmlns="http://www.w3.org/2000/svg">
  <path fill-rule="evenodd" clip-rule="evenodd" d="M11.4697 5.21967C11.7626 4.92678 12.2374 4.92678 12.5303 5.21967L15.7803 8.46967C16.0732 8.76256 16.0732 9.23744 15.7803 9.53033C15.4874 9.82322 15.0126 9.82322 14.7197 9.53033L12 6.81066L9.28033 9.53033C8.98744 9.82322 8.51256 9.82322 8.21967 9.53033C7.92678 9.23744 7.92678 8.76256 8.21967 8.46967L11.4697 5.21967Z"/>
  <path fill-rule="evenodd" clip-rule="evenodd" d="M12 5.5C12.4142 5.5 12.75 5.83579 12.75 6.25V14.25C12.75 14.6642 12.4142 15 12 15C11.5858 15 11.25 14.6642 11.25 14.25V6.25C11.25 5.83579 11.5858 5.5 12 5.5Z"/>
  <path fill-rule="evenodd" clip-rule="evenodd" d="M10.75 18C10.75 17.5858 11.0858 17.25 11.5 17.25H12.5C12.9142 17.25 13.25 17.5858 13.25 18C13.25 18.4142 12.9142 18.75 12.5 18.75H11.5C11.0858 18.75 10.75 18.4142 10.75 18Z"/>
  <path fill-rule="evenodd" clip-rule="evenodd" d="M2.75 18C2.75 17.5858 3.08579 17.25 3.5 17.25H4.5C4.91421 17.25 5.25 17.5858 5.25 18C5.25 18.4142 4.91421 18.75 4.5 18.75H3.5C3.08579 18.75 2.75 18.4142 2.75 18Z"/>
  <path fill-rule="evenodd" clip-rule="evenodd" d="M14.75 18C14.75 17.5858 15.0858 17.25 15.5 17.25H16.5C16.9142 17.25 17.25 17.5858 17.25 18C17.25 18.4142 16.9142 18.75 16.5 18.75H15.5C15.0858 18.75 14.75 18.4142 14.75 18Z"/>
  <path fill-rule="evenodd" clip-rule="evenodd" d="M6.75 18C6.75 17.5858 7.08579 17.25 7.5 17.25H8.5C8.91421 17.25 9.25 17.5858 9.25 18C9.25 18.4142 8.91421 18.75 8.5 18.75H7.5C7.08579 18.75 6.75 18.4142 6.75 18Z"/>
  <path fill-rule="evenodd" clip-rule="evenodd" d="M18.75 18C18.75 17.5858 19.0858 17.25 19.5 17.25H20.5C20.9142 17.25 21.25 17.5858 21.25 18C21.25 18.4142 20.9142 18.75 20.5 18.75H19.5C19.0858 18.75 18.75 18.4142 18.75 18Z"/>
</svg>

<svg xmlns="http://www.w3.org/2000/svg" width="24" height="24" viewBox="0 0 24 24"><path fill-rule="evenodd" d="M11.47 5.22a.75.75 0 011.06 0l3.25 3.25a.75.75 0 01-1.06 1.06L12 6.81 9.28 9.53a.75.75 0 01-1.06-1.06l3.25-3.25z"/><path fill-rule="evenodd" d="M12 5.5a.75.75 0 01.75.75v8a.75.75 0 01-1.5 0v-8A.75.75 0 0112 5.5zM10.75 18a.75.75 0 01.75-.75h1a.75.75 0 010 1.5h-1a.75.75 0 01-.75-.75zm-8 0a.75.75 0 01.75-.75h1a.75.75 0 010 1.5h-1a.75.75 0 01-.75-.75zm12 0a.75.75 0 01.75-.75h1a.75.75 0 010 1.5h-1a.75.75 0 01-.75-.75zm-8 0a.75.75 0 01.75-.75h1a.75.75 0 010 1.5h-1a.75.75 0 01-.75-.75zm12 0a.75.75 0 01.75-.75h1a.75.75 0 010 1.5h-1a.75.75 0 01-.75-.75z"/></svg>
